fFJHJSlivlnRZ35SxXdbdCsY+aHOxLNWD6PCtYBgKEWOEQ6GzdN+t6LTS8W9GY3jY6DvqJnhokaVYWAj3+b1y1+A6urXXhinefMp69I4FwYEuCsQKykgg8jUh0ebcs6N6+83ePmv6bvoJEAAyta4sBuWTnTF3NcnKeyn/LxXy5L7E3VGwl0omv0EEC9MBqtFcTe/ZyNQjYmtfQaPuhM1fer/OgoWDJVzrnZLtqogtjytajk6z/vk1ZevJSEfLz2mw9zj5171ktHWWPJyXAQaX5dyhr35ON01QlX1Y5Q1spHKCNha8w0Jl8Cih0HDOoymDfh7YH1fxlfaup8CUrobZg3aDIudI1ieYmnwekw/KIBEbK7LPDHNiuL0iD4jgk3MONpW6X3v459MOe9XjaJbZf2cqeb2D1bFe8miI4AlbBc6I0JKOfyS069B21HuyPfANe2R1+nGf93YiudzN29sF68Sb69KS2H27wcIO+ceUneEAlfsvCt8XGCfOouyE65E6EsBEPMtD+L1pnLT31GvwUKFC43G4xpmQfHqzxYn2bAccfQvij4//CKQO/vJL3sWLXK23CM2TPow3U5deilMZxWfriTL+i1o4XTi4y294YE=